src/assets/svg/icons/fa/nuevos/classic/duotone/building-circle-xmark classic duotone.svg

<svg xmlns="http://www.w3.org/2000/svg" viewBox="0 0 640 512"><!--! Font Awesome Pro 6.4.0 by @fontawesome - https://fontawesome.com License - https://fontawesome.com/license (Commercial License) Copyright 2023 Fonticons, Inc. --><defs><style>.fa-secondary{opacity:.4}</style></defs><path class="fa-primary" d="M352 368a144 144 0 1 1 288 0 144 144 0 1 1 -288 0zm203.3-59.3c-6.2-6.2-16.4-6.2-22.6 0L496 345.4l-36.7-36.7c-6.2-6.2-16.4-6.2-22.6 0s-6.2 16.4 0 22.6L473.4 368l-36.7 36.7c-6.2 6.2-6.2 16.4 0 22.6s16.4 6.2 22.6 0L496 390.6l36.7 36.7c6.2 6.2 16.4 6.2 22.6 0s6.2-16.4 0-22.6L518.6 368l36.7-36.7c6.2-6.2 6.2-16.4 0-22.6z"/><path class="fa-secondary" d="M0 48C0 21.5 21.5 0 48 0H336c26.5 0 48 21.5 48 48V232.2c-39.1 32.3-64 81.1-64 135.8c0 49.5 20.4 94.2 53.3 126.2C364.5 505.1 351.1 512 336 512H240V432c0-26.5-21.5-48-48-48s-48 21.5-48 48v80H48c-26.5 0-48-21.5-48-48V48zM80 224c-8.8 0-16 7.2-16 16v32c0 8.8 7.2 16 16 16h32c8.8 0 16-7.2 16-16V240c0-8.8-7.2-16-16-16H80zm80 16v32c0 8.8 7.2 16 16 16h32c8.8 0 16-7.2 16-16V240c0-8.8-7.2-16-16-16H176c-8.8 0-16 7.2-16 16zm112-16c-8.8 0-16 7.2-16 16v32c0 8.8 7.2 16 16 16h32c8.8 0 16-7.2 16-16V240c0-8.8-7.2-16-16-16H272zM64 112v32c0 8.8 7.2 16 16 16h32c8.8 0 16-7.2 16-16V112c0-8.8-7.2-16-16-16H80c-8.8 0-16 7.2-16 16zM176 96c-8.8 0-16 7.2-16 16v32c0 8.8 7.2 16 16 16h32c8.8 0 16-7.2 16-16V112c0-8.8-7.2-16-16-16H176zm80 16v32c0 8.8 7.2 16 16 16h32c8.8 0 16-7.2 16-16V112c0-8.8-7.2-16-16-16H272c-8.8 0-16 7.2-16 16z"/></svg>

<svg xmlns="http://www.w3.org/2000/svg" viewBox="0 0 640 512"><defs><style>.fa-secondary{opacity:.4}</style></defs><path class="fa-primary" d="M640 368C640 447.5 575.5 512 496 512C416.5 512 352 447.5 352 368C352 288.5 416.5 224 496 224C575.5 224 640 288.5 640 368zM532.7 308.7L496 345.4L459.3 308.7C453.1 302.4 442.9 302.4 436.7 308.7C430.4 314.9 430.4 325.1 436.7 331.3L473.4 368L436.7 404.7C430.4 410.9 430.4 421.1 436.7 427.3C442.9 433.6 453.1 433.6 459.3 427.3L496 390.6L532.7 427.3C538.9 433.6 549.1 433.6 555.3 427.3C561.6 421.1 561.6 410.9 555.3 404.7L518.6 368L555.3 331.3C561.6 325.1 561.6 314.9 555.3 308.7C549.1 302.4 538.9 302.4 532.7 308.7z"/><path class="fa-secondary" d="M0 48C0 21.49 21.49 0 48 0H336C362.5 0 384 21.49 384 48V232.2C344.9 264.5 320 313.3 320 368C320 417.5 340.4 462.2 373.3 494.2C364.5 505.1 351.1 512 336 512H240V432C240 405.5 218.5 384 192 384C165.5 384 144 405.5 144 432V512H48C21.49 512 0 490.5 0 464V48zM80 224C71.16 224 64 231.2 64 240V272C64 280.8 71.16 288 80 288H112C120.8 288 128 280.8 128 272V240C128 231.2 120.8 224 112 224H80zM160 272C160 280.8 167.2 288 176 288H208C216.8 288 224 280.8 224 272V240C224 231.2 216.8 224 208 224H176C167.2 224 160 231.2 160 240V272zM272 224C263.2 224 256 231.2 256 240V272C256 280.8 263.2 288 272 288H304C312.8 288 320 280.8 320 272V240C320 231.2 312.8 224 304 224H272zM64 144C64 152.8 71.16 160 80 160H112C120.8 160 128 152.8 128 144V112C128 103.2 120.8 96 112 96H80C71.16 96 64 103.2 64 112V144zM176 96C167.2 96 160 103.2 160 112V144C160 152.8 167.2 160 176 160H208C216.8 160 224 152.8 224 144V112C224 103.2 216.8 96 208 96H176zM256 144C256 152.8 263.2 160 272 160H304C312.8 160 320 152.8 320 144V112C320 103.2 312.8 96 304 96H272C263.2 96 256 103.2 256 112V144z"/></svg>
